exported-svg/octagon.svg

<svg height="24" viewBox="0 0 24 24" width="24" xmlns="http://www.w3.org/2000/svg"><path d="m7.72042534 2.13947296c.08930304-.08930304.21042395-.13947296.33671752-.13947296h7.88571424c.1262936 0 .2474145.05016992.3367176.13947296l5.5809523 5.58095238c.0893031.08930304.139473.21042395.139473.33671752v7.88571424c0 .1262936-.0501699.2474145-.139473.3367176l-5.5809523 5.5809523c-.0893031.0893031-.210424.139473-.3367176.139473h-7.88571424c-.12629357 0-.24741448-.0501699-.33671752-.139473l-5.58095238-5.5809523c-.08930304-.0893031-.13947296-.210424-.13947296-.3367176v-7.88571424c0-.12629357.05016992-.24741448.13947296-.33671752zm.55367582.86052704-5.27410116 5.27410116v7.45179764l5.27410116 5.2741012h7.45179764l5.2741012-5.2741012v-7.45179764l-5.2741012-5.27410116z"/></svg>

<?xml version="1.0" encoding="UTF-8"?>
<svg width="24px" height="24px" viewBox="0 0 24 24" version="1.1" xmlns="http://www.w3.org/2000/svg" xmlns:xlink="http://www.w3.org/1999/xlink">
    <!-- Generator: Sketch 55.2 (78181) - https://sketchapp.com -->
    <title>octagon</title>
    <desc>Created with Sketch.</desc>
    <g id="octagon" stroke="none" stroke-width="1" fill="none" fill-rule="evenodd">
        <path d="M7.72042534,2.13947296 C7.80972838,2.05016992 7.93084929,2 8.05714286,2 L15.9428571,2 C16.0691507,2 16.1902716,2.05016992 16.2795747,2.13947296 L21.860527,7.72042534 C21.9498301,7.80972838 22,7.93084929 22,8.05714286 L22,15.9428571 C22,16.0691507 21.9498301,16.1902716 21.860527,16.2795747 L16.2795747,21.860527 C16.1902716,21.9498301 16.0691507,22 15.9428571,22 L8.05714286,22 C7.93084929,22 7.80972838,21.9498301 7.72042534,21.860527 L2.13947296,16.2795747 C2.05016992,16.1902716 2,16.0691507 2,15.9428571 L2,8.05714286 C2,7.93084929 2.05016992,7.80972838 2.13947296,7.72042534 L7.72042534,2.13947296 Z M8.27410116,3 L3,8.27410116 L3,15.7258988 L8.27410116,21 L15.7258988,21 L21,15.7258988 L21,8.27410116 L15.7258988,3 L8.27410116,3 Z" id="Shape" fill="#000000" fill-rule="nonzero"></path>
    </g>
</svg>
